X: 4249
T: HURICHUM HARICHIM
%R: jig
B: James Kerr "Merry Melodies" v.4 p.27 #249
Z: 2016 John Chambers <jc:trillian.mit.edu>
M: 6/8
L: 1/8
K: D
g/e/ |\
d2A B2A | d2A BAB | d2f efd | ede efe |\
d2A B2A | d2A BAB | d2f efe | dAd d2 :: g |\
ada afd | gag fed | efg fef | dAd d2g |
ada afd | gag fed | efg fef | dAd d2 :| g |\
ada afd | gag fed | g3  fgf | efe efe |\
d2A B2A | d2A BAB | d2f efe | dAd d2 :|

%%sep 1 1 500
%%sep 1 1 500

